src/lib/packages/icons/src/assets/filled/eye.svg

<svg width="24" height="24" viewBox="0 0 24 24" fill="none" xmlns="http://www.w3.org/2000/svg">
<path d="M14.75 12C14.75 13.517 13.517 14.75 12 14.75C10.483 14.75 9.25004 13.517 9.25004 12C9.25004 11.651 9.32196 11.32 9.44096 11.012C9.63496 11.166 9.86903 11.272 10.136 11.272C10.763 11.272 11.272 10.763 11.272 10.136C11.272 9.86899 11.166 9.63492 11.012 9.44092C11.32 9.32192 11.651 9.25 12 9.25C13.517 9.25 14.75 10.483 14.75 12ZM20.5921 13.4771C19.3651 15.5311 16.609 19 12 19C7.39104 19 4.635 15.5311 3.408 13.4771C2.864 12.5671 2.864 11.4329 3.408 10.5229C4.635 8.46895 7.39104 5 12 5C16.609 5 19.3651 8.46895 20.5921 10.5229C21.1361 11.4329 21.1361 12.5671 20.5921 13.4771ZM16.25 12C16.25 9.657 14.344 7.75 12 7.75C9.65604 7.75 7.75004 9.657 7.75004 12C7.75004 14.343 9.65604 16.25 12 16.25C14.344 16.25 16.25 14.343 16.25 12Z" fill="currentColor"/>
</svg>

<svg xmlns="http://www.w3.org/2000/svg" width="24" height="24" fill="none"><path fill="currentColor" d="M14.75 12A2.752 2.752 0 0 1 12 14.75 2.752 2.752 0 0 1 9.25 12c0-.349.072-.68.191-.988.194.154.428.26.695.26.627 0 1.136-.509 1.136-1.136 0-.267-.106-.501-.26-.695A2.71 2.71 0 0 1 12 9.25 2.752 2.752 0 0 1 14.75 12Zm5.842 1.477C19.365 15.531 16.61 19 12 19s-7.365-3.469-8.592-5.523a2.878 2.878 0 0 1 0-2.954C4.635 8.469 7.391 5 12 5s7.365 3.469 8.592 5.523c.544.91.544 2.044 0 2.954ZM16.25 12A4.255 4.255 0 0 0 12 7.75 4.255 4.255 0 0 0 7.75 12 4.255 4.255 0 0 0 12 16.25 4.255 4.255 0 0 0 16.25 12Z"/></svg>
